src/pos-icons/assistant.svg

<svg height="24" viewBox="0 0 24 24" width="24" xmlns="http://www.w3.org/2000/svg"><path d="m19 2h-14a2 2 0 0 0 -2 2v14a2 2 0 0 0 2 2h4l3 3 3-3h4a2 2 0 0 0 2-2v-14a2 2 0 0 0 -2-2m-5.12 10.88-1.88 4.12-1.88-4.12-4.12-1.88 4.12-1.88 1.88-4.12 1.88 4.12 4.12 1.88"/></svg>

<?xml version="1.0" encoding="UTF-8"?><!DOCTYPE svg PUBLIC "-//W3C//DTD SVG 1.1//EN" "http://www.w3.org/Graphics/SVG/1.1/DTD/svg11.dtd"><svg xmlns="http://www.w3.org/2000/svg" xmlns:xlink="http://www.w3.org/1999/xlink" version="1.1" id="mdi-assistant" width="24" height="24" viewBox="0 0 24 24"><path d="M19,2H5A2,2 0 0,0 3,4V18A2,2 0 0,0 5,20H9L12,23L15,20H19A2,2 0 0,0 21,18V4A2,2 0 0,0 19,2M13.88,12.88L12,17L10.12,12.88L6,11L10.12,9.12L12,5L13.88,9.12L18,11" /></svg>
